gtk-icons/Papirus-Dark-GTK/16x16/actions/edit-clone-unlink.svg

<?xml version="1.0" encoding="UTF-8" standalone="no"?>
<!-- Created with Inkscape (http://www.inkscape.org/) -->

<svg
   xmlns:osb="http://www.openswatchbook.org/uri/2009/osb"
   xmlns:dc="http://purl.org/dc/elements/1.1/"
   xmlns:cc="http://creativecommons.org/ns#"
   xmlns:rdf="http://www.w3.org/1999/02/22-rdf-syntax-ns#"
   xmlns:svg="http://www.w3.org/2000/svg"
   xmlns="http://www.w3.org/2000/svg"
   xmlns:sodipodi="http://sodipodi.sourceforge.net/DTD/sodipodi-0.dtd"
   xmlns:inkscape="http://www.inkscape.org/namespaces/inkscape"
   sodipodi:docname="edit-clone-unlink.svg"
   inkscape:export-filename="/home/sam/source-symbolic.png"
   inkscape:export-xdpi="270"
   inkscape:export-ydpi="270"
   height="16"
   id="svg7384"
   style="enable-background:new"
   version="1.1"
   inkscape:version="0.91 r13725"
   width="15.981825">
  <sodipodi:namedview
     inkscape:bbox-nodes="true"
     inkscape:bbox-paths="false"
     bordercolor="#666666"
     borderlayer="false"
     borderopacity="1"
     inkscape:current-layer="layer12"
     inkscape:cx="-13.595515"
     inkscape:cy="2.8114406"
     gridtolerance="10"
     inkscape:guide-bbox="true"
     guidetolerance="10"
     id="namedview88"
     inkscape:object-nodes="true"
     inkscape:object-paths="true"
     objecttolerance="10"
     pagecolor="#f7f7f7"
     inkscape:pageopacity="0"
     inkscape:pageshadow="2"
     showborder="true"
     showgrid="false"
     showguides="true"
     inkscape:showpageshadow="false"
     inkscape:snap-bbox="true"
     inkscape:snap-bbox-edge-midpoints="false"
     inkscape:snap-bbox-midpoints="true"
     inkscape:snap-center="false"
     inkscape:snap-global="true"
     inkscape:snap-grids="true"
     inkscape:snap-intersection-paths="true"
     inkscape:snap-midpoints="true"
     inkscape:snap-nodes="true"
     inkscape:snap-object-midpoints="true"
     inkscape:snap-others="true"
     inkscape:snap-page="false"
     inkscape:snap-smooth-nodes="true"
     inkscape:snap-to-guides="true"
     inkscape:window-height="847"
     inkscape:window-maximized="1"
     inkscape:window-width="1600"
     inkscape:window-x="0"
     inkscape:window-y="30"
     inkscape:zoom="11.42">
    <inkscape:grid
       color="#ffffff"
       dotted="false"
       empcolor="#0800ff"
       empopacity="0.4627451"
       empspacing="4"
       enabled="true"
       id="grid4866"
       opacity="0.16470588"
       originx="-144.00038"
       originy="-276.00334"
       snapvisiblegridlinesonly="true"
       spacingx="0.25px"
       spacingy="0.25px"
       type="xygrid"
       visible="true" />
  </sodipodi:namedview>
  <metadata
     id="metadata90">
    <rdf:RDF>
      <cc:Work
         rdf:about="">
        <dc:format>image/svg+xml</dc:format>
        <dc:type
           rdf:resource="http://purl.org/dc/dcmitype/StillImage" />
        <dc:title>Paper Symbolic Icon Theme</dc:title>
      </cc:Work>
    </rdf:RDF>
  </metadata>
  <title
     id="title8473">Paper Symbolic Icon Theme</title>
  <defs
     id="defs7386">
    <linearGradient
       id="linearGradient5606"
       osb:paint="solid">
      <stop
         id="stop5608"
         offset="0"
         style="stop-color:#ffffff;stop-opacity:1;" />
    </linearGradient>
  </defs>
  <g
     inkscape:groupmode="layer"
     id="layer12"
     inkscape:label="actions"
     style="display:inline"
     transform="translate(-385.00058,59.00334)">
    <path
       style="opacity:0.72;stroke:none;fill:#ffffff;fill-opacity:1"
       d="M 2 2 L 2 10 L 6 10 L 6 14 L 14 14 L 14 6 L 10 6 L 10 2 L 2 2 z M 10 7 C 10.738667 7 11.333984 7.6834375 11.333984 8.5234375 L 11.333984 10 L 11.666016 10 C 11.850682 10 12 10.16725 12 10.375 L 12 12.625 C 12 12.83275 11.850682 13 11.666016 13 L 8.3339844 13 C 8.1493177 13 8 12.83275 8 12.625 L 8 10.375 C 8 10.16725 8.1493177 10 8.3339844 10 L 8.6660156 10 L 9 10 L 10 10 L 10.666016 10 L 10.666016 8.5 C 10.666016 8.0845 10.369333 7.75 10 7.75 C 9.6306667 7.75 9.3339844 8.0845 9.3339844 8.5 L 9.3339844 8.875 L 9 8.875 L 8.6660156 8.875 L 8.6660156 8.5 C 8.6771556 7.6706463 9.2683433 7 10 7 z "
       transform="translate(385.00058,-59.00334)"
       id="rect4138" />
    <g
       id="layer1"
       inkscape:label="places"
       style="display:inline"
       transform="translate(426.21396,-549.03431)" />
    <g
       id="layer14"
       inkscape:label="mimetypes"
       style="display:inline"
       transform="translate(185.21376,67.96569)" />
    <g
       id="layer15"
       inkscape:label="emblems"
       style="display:inline"
       transform="translate(185.21376,67.96569)" />
    <g
       id="g71291"
       inkscape:label="emotes"
       style="display:inline"
       transform="translate(185.21376,67.96569)" />
    <g
       id="layer2"
       inkscape:label="categories"
       style="display:inline"
       transform="translate(426.21396,-399.03431)" />
    <g
       id="g6058"
       inkscape:label="apps"
       style="display:inline"
       transform="translate(426.21396,-399.03431)" />
    <g
       id="layer12-9"
       inkscape:label="actions"
       style="display:inline"
       transform="translate(185.21376,67.96569)" />
    <g
       id="layer9"
       inkscape:label="status"
       style="display:inline"
       transform="matrix(0.33333333,0,0,0.375,270.66718,42.12166)" />
    <g
       id="layer1-9"
       inkscape:label="places"
       style="display:inline"
       transform="translate(378.14524,-545.11342)" />
    <g
       id="layer14-3"
       inkscape:label="mimetypes"
       style="display:inline"
       transform="translate(137.14504,71.88658)" />
    <g
       id="layer15-8"
       inkscape:label="emblems"
       style="display:inline"
       transform="translate(137.14504,71.88658)" />
    <g
       id="g71291-2"
       inkscape:label="emotes"
       style="display:inline"
       transform="translate(137.14504,71.88658)" />
    <g
       id="layer2-0"
       inkscape:label="categories"
       style="display:inline"
       transform="translate(378.14524,-395.11342)" />
    <g
       id="g6058-8"
       inkscape:label="apps"
       style="display:inline"
       transform="translate(378.14524,-395.11342)" />
    <g
       id="layer12-5"
       inkscape:label="actions"
       style="display:inline"
       transform="translate(137.14504,71.88658)" />
  </g>
</svg>

<?xml version="1.0" encoding="UTF-8" standalone="no"?>
<!-- Created with Inkscape (http://www.inkscape.org/) -->
<svg id="svg7384" xmlns:rdf="http://www.w3.org/1999/02/22-rdf-syntax-ns#" style="enable-background:new" xmlns="http://www.w3.org/2000/svg" xmlns:osb="http://www.openswatchbook.org/uri/2009/osb" height="16" width="15.982" version="1.1" xmlns:cc="http://creativecommons.org/ns#" xmlns:dc="http://purl.org/dc/elements/1.1/">
 <metadata id="metadata90">
  <rdf:RDF>
   <cc:Work rdf:about="">
    <dc:format>image/svg+xml</dc:format>
    <dc:type rdf:resource="http://purl.org/dc/dcmitype/StillImage"/>
    <dc:title>Paper Symbolic Icon Theme</dc:title>
   </cc:Work>
  </rdf:RDF>
 </metadata>
 <title id="title8473">Paper Symbolic Icon Theme</title>
 <g id="layer12" transform="translate(-385 59.003)">
  <path id="rect4138" opacity=".72" d="m2 2v8h4v4h8v-8h-4v-4h-8zm8 5c0.739 0 1.334 0.6834 1.334 1.5234v1.4766h0.332c0.185 0 0.334 0.167 0.334 0.375v2.25c0 0.208-0.149 0.375-0.334 0.375h-3.332c-0.1847 0-0.334-0.167-0.334-0.375v-2.25c0-0.208 0.1493-0.375 0.334-0.375h0.332 0.334 1 0.666v-1.5c0-0.4155-0.297-0.75-0.666-0.75-0.3693 0-0.666 0.3345-0.666 0.75v0.375h-0.334-0.334v-0.375c0.0112-0.8294 0.6023-1.5 1.334-1.5z" transform="translate(385 -59.003)" fill="#fff"/>
 </g>
</svg>
